material/.icons/material/format-superscript.svg

<svg xmlns="http://www.w3.org/2000/svg" viewBox="0 0 24 24"><path d="M16 7.41L11.41 12 16 16.59 14.59 18 10 13.41 5.41 18 4 16.59 8.59 12 4 7.41 5.41 6 10 10.59 14.59 6 16 7.41M21.85 9h-4.88V8l.89-.82c.76-.64 1.32-1.18 1.7-1.63.37-.44.56-.85.57-1.23a.884.884 0 00-.27-.7c-.18-.19-.47-.28-.86-.29-.31.01-.58.07-.84.17l-.66.39-.45-1.17c.27-.22.59-.39.98-.53S18.85 2 19.32 2c.78 0 1.38.2 1.78.61.4.39.62.93.62 1.57-.01.56-.19 1.08-.54 1.55-.34.48-.76.93-1.27 1.36l-.64.52v.02h2.58V9z"/></svg>

<?xml version="1.0" encoding="UTF-8"?><!DOCTYPE svg PUBLIC "-//W3C//DTD SVG 1.1//EN" "http://www.w3.org/Graphics/SVG/1.1/DTD/svg11.dtd"><svg xmlns="http://www.w3.org/2000/svg" xmlns:xlink="http://www.w3.org/1999/xlink" version="1.1" id="mdi-format-superscript" width="24" height="24" viewBox="0 0 24 24"><path d="M16,7.41L11.41,12L16,16.59L14.59,18L10,13.41L5.41,18L4,16.59L8.59,12L4,7.41L5.41,6L10,10.59L14.59,6L16,7.41M21.85,9H16.97V8L17.86,7.18C18.62,6.54 19.18,6 19.56,5.55C19.93,5.11 20.12,4.7 20.13,4.32C20.14,4.04 20.05,3.8 19.86,3.62C19.68,3.43 19.39,3.34 19,3.33C18.69,3.34 18.42,3.4 18.16,3.5L17.5,3.89L17.05,2.72C17.32,2.5 17.64,2.33 18.03,2.19C18.42,2.05 18.85,2 19.32,2C20.1,2 20.7,2.2 21.1,2.61C21.5,3 21.72,3.54 21.72,4.18C21.71,4.74 21.53,5.26 21.18,5.73C20.84,6.21 20.42,6.66 19.91,7.09L19.27,7.61V7.63H21.85V9Z" /></svg>
